X: 43045
T: Wind In The Branches, The
R: jig
M: 6/8
K: Gmajor
D2 B A2 B|c2 A B2 G|EFG D2 G|A2 c B2 A|
G2 B A2 B|c2 A B2 d|c2 c cBA|G2 G F2 E:|
|:D2 d dcd|e2 g d2 B|c2 e a2 b|a2 g fed|
B2 e eBd|e2 g d2 g|c2 g B2 d|cBA GFE:|

